X: 1
T:Billy Pitt. WI.001
M:C|
L:1/8
Q:200
S:Wm Irwin, 1838 MS, AGG's Transcription
R:Reel
O:England
A:England
Z:vmp.Chris Partington
K:D
d2df|a2af|g2ge| cecA|d2df|a2af|bgec|d2D2:|!
|:Adcd |fdcd|Bgfg| ea^ga|Adcd |fdcd|Bgec|d2D2:|]
